X: 09016
T: CHAPMAN'S REEL
C: Bob McQuillen 26 Oct 92
B: Bob's Note Book 9 #16
R: reel
Z: 2019 John Chambers <jc:trillian.mit.edu>
M: C
L: 1/8
K: D
dB \
| A2FA BAFE | DFAd BAdf | a2fa bafe | dfed BAdB |
| A2FA BAFE | FAFD EDFA | d2fd edfe | dBAF A2 :|
|: de \
| f2df edBd | ABdf edBd | f2ab afde | fdgf e2de |
| f2df edBA | dBAF EFDE | FDFA dfab | afef d2 :|
%%begintext align
%% Andy Chapman is a real
%% fine guitar player and a regular at the Nelson Town
%% Hall Monday Night Dances. I don't think you'll have
%% a whole lot of trouble chording this tune, Andy, if you
%% can get somebody to play melody for you!
%%endtext

%%sep 1 1 500

%%sep 1 1 500

